X: 6636
T: Cazadero
R: reel
M: 4/4
K: Gmajor
BA|:GDGA Bcgf|edef g2 ge|cddc BAGB|GAAG FDBA|
GDBG dBgf|edef g2 ge|dBGB AGFA|1 FGGF G2 BA:|2 FGGF G2 ef||
|:g3 b aged|ggfg edBd|g3 b aged|gaag a2 ef|
g3 b aged|ggfg edBG|A3 B AGED|1 EGGF G2 ef:|2 EGGA ABBA||
|:Geed e2 ba|geee fddd|deed eBBB|eBdB AcBA|
Geed e2 ba|geee fddd|deef gedc|1 BdAB G2 BA:|2 BdAB G2 ga||
b3 b a3 a|g3 g dega|b2 d'2- d'b a2|ag z z de f2|
g4 f4|e4 z2 d2|eged BGAG|AAAB AGed|
g2 b2- b2 a2|g3 g dega|b2 d'2- d'b a2|ag z z de f2|
g4 f4|e4 z2 d2|eged BGAG|AAAG AcBA||

